X: 32148
T: Peter O'Tavy
R: jig
M: 6/8
K: Gmajor
D|GGG G2G|A2D A2D|AFD AFD|DEF G2D|
GGG G2G|A2D A2A|AFD DEF|G3 GBd|
g2d g2d|gfe d2d|e2e dcB|dcB A2f|
ggg g2g|gfe d2d|dcB AGF|G3 G2||

